X: 06089
T: SOLOMON'S MARCH
C: Bob McQuillen 21 Sept 82
B: Bob's Note Book 6 #89
%R: jig, march
Z: 2021 John Chambers <jc:trillian.mit.edu>
M: 6/8
L: 1/8
K: Em	% or G or Adorian or ..
ed \
| BAB G2A | B2c ded | BGG GAB | d2e dBd |\
| egg dBA | Bee e2d | ged BGA | BAA A :|
|: ga \
| b2a ged | egg gba | g2e ded | B2e ega |\
| bgb aga | bge e2g | aba geg | dBA A :|["Last time\n(optional)"dBG G |]
%%begintext align
%% This tune is for
%% Solomon's Seal - a great group of inspired
%% instrumentalists - Rick and Lorraine Lee, Jane
%% McBride Orzechovski, and my very dear
%% Sarah Forbes Bauhan - with much love to all -
%% (P.S. WAIT! Just wait till you hear them. Truly,
%% you have a _real _treat_ coming your way!)
%%endtext

%%sep 1 1 500

%%sep 1 1 500

